static/img/menus/ico-air-reissue.svg

<svg width="16" height="16" viewBox="0 0 16 16" fill="none" xmlns="http://www.w3.org/2000/svg">
<g clip-path="url(#clip0_106_17)">
<circle cx="8" cy="8" r="8" fill="#D0D0D0"/>
<path d="M12.6387 7.18917C12.8381 7.18948 13.0002 7.35111 13 7.5505C12.9985 8.46297 12.6353 9.3378 11.9902 9.98312C11.345 10.6283 10.47 10.9922 9.55762 10.9939H4.26367L4.80273 11.5329C4.94374 11.674 4.94377 11.9026 4.80273 12.0437C4.66166 12.1845 4.43298 12.1846 4.29199 12.0437L3.13672 10.8874C3.12314 10.8738 3.11074 10.8588 3.09961 10.8435C3.07008 10.8027 3.0485 10.7559 3.03809 10.7048C3.03317 10.681 3.03027 10.6562 3.03027 10.6316C3.03043 10.536 3.06911 10.4443 3.13672 10.3767L4.29199 9.22042C4.43297 9.07973 4.66173 9.07977 4.80273 9.22042C4.9438 9.36149 4.9438 9.59107 4.80273 9.73214L4.2627 10.2712H9.55566C10.2771 10.2701 10.9693 9.98253 11.4795 9.47237C11.9893 8.9623 12.2762 8.27077 12.2773 7.54952C12.2777 7.35028 12.4395 7.18917 12.6387 7.18917ZM11.2275 3.05636C11.3685 2.91537 11.5972 2.91553 11.7383 3.05636L12.8945 4.21261C12.8968 4.21491 12.8982 4.21808 12.9004 4.22042C12.9123 4.23306 12.9236 4.2462 12.9336 4.26046C12.937 4.26529 12.9402 4.27015 12.9434 4.27511C12.9503 4.28607 12.9562 4.29757 12.9619 4.30929C12.9661 4.31783 12.9711 4.32589 12.9746 4.33468C12.9807 4.35004 12.9843 4.36623 12.9883 4.38253C12.9898 4.38877 12.992 4.39479 12.9932 4.40108C12.9972 4.42267 13 4.44475 13 4.46749C13 4.51403 12.9907 4.55844 12.9746 4.59933C12.9723 4.60515 12.9684 4.61021 12.9658 4.61593C12.9594 4.62998 12.9534 4.64392 12.9453 4.65694C12.9411 4.66369 12.9363 4.66996 12.9316 4.67648C12.9226 4.68918 12.9129 4.7012 12.9023 4.71261C12.8994 4.71577 12.8976 4.72027 12.8945 4.72335L11.7383 5.8796C11.5972 6.02015 11.3685 6.02038 11.2275 5.8796C11.0866 5.73869 11.0869 5.50997 11.2275 5.36886L11.7666 4.82882H6.47461L6.33887 4.83273C5.66686 4.86725 5.02984 5.1496 4.55176 5.62765C4.04166 6.13774 3.75414 6.82913 3.75293 7.5505C3.75249 7.74989 3.59005 7.91214 3.39062 7.91183C3.19138 7.91126 3.03002 7.74882 3.03027 7.54952C3.03171 6.63684 3.39564 5.76228 4.04102 5.11691C4.68638 4.47158 5.56097 4.1076 6.47363 4.10616H11.7666L11.2275 3.5671C11.0867 3.42605 11.0867 3.19735 11.2275 3.05636Z" fill="black"/>
</g>
<defs>
<clipPath id="clip0_106_17">
<rect width="16" height="16" fill="white"/>
</clipPath>
</defs>
</svg>

<svg xmlns="http://www.w3.org/2000/svg" width="16" height="16" fill="none" viewBox="0 0 16 16"><g clip-path="url(#a)"><circle cx="8" cy="8" r="8" fill="#d0d0d0"/><path fill="#000" d="M12.639 7.19c.2 0 .361.161.361.36a3.45 3.45 0 0 1-3.442 3.444H4.264l.539.539a.361.361 0 0 1-.511.51l-1.155-1.156a.37.37 0 0 1-.107-.255c0-.096.04-.188.107-.255L4.292 9.22a.362.362 0 0 1 .51.512l-.54.54h5.294a2.73 2.73 0 0 0 2.721-2.722c0-.2.163-.36.362-.36m-1.412-4.134a.36.36 0 0 1 .511 0l1.157 1.157.005.007a.4.4 0 0 1 .062.09q.007.012.013.025.009.022.013.048l.005.018a.36.36 0 0 1-.019.198l-.008.017-.02.04-.014.02-.03.037-.007.01-1.157 1.157a.362.362 0 0 1-.51-.511l.539-.54H6.475l-.136.004A2.725 2.725 0 0 0 3.753 7.55a.362.362 0 0 1-.723-.001 3.45 3.45 0 0 1 3.444-3.444h5.293l-.54-.539a.36.36 0 0 1 0-.51"/></g><defs><clipPath id="a"><path fill="#fff" d="M0 0h16v16H0z"/></clipPath></defs></svg>
